X:1
T:The Dusty Miller
L:1/8
M:9/8
R:Slip Jig
K:G Major
Z:EW
S:Seamus Ennis
|: B2c d2B A2G | F2G A2B c2A | B2c d2B A2G | D2G B2A G3 :|
|: Bcd e2f g2z | B2d g2e dBA | B2d e2f g2z | D2G B2A G3 :|
